images_elementary_svg/cmd/nl/sc_underline.svg

<svg viewBox="0 0 16 16" xmlns="http://www.w3.org/2000/svg" xmlns:xlink="http://www.w3.org/1999/xlink"><radialGradient id="a" cx="7.01072" cy="4.528114" gradientTransform="matrix(-1.6197201 .00000004 -.00000006 -3.5647902 17.449339 17.729398)" gradientUnits="userSpaceOnUse" r="3.431876"><stop offset="0" stop-color="#737373"/><stop offset=".262" stop-color="#636363"/><stop offset=".705" stop-color="#4b4b4b"/><stop offset="1" stop-color="#3f3f3f"/></radialGradient>

/&amp;amp;gt;<g stroke-linejoin="round"><path d="m3.49 15.5h9.02z" fill="none" stroke="#565656" stroke-linecap="round" stroke-width=".995"/><path d="m12.739224 7.8774127q0 1.2268433-.297636 2.2359033-.290377 1.009061-.871131 1.727744-.580755.718683-1.444627 1.110693-.856612.392009-1.9818233.392009-1.1832867 0-2.054418-.392009-.8638718-.39201-1.4373666-1.110693-.5662354-.718683-.8420936-1.727744-.2758583-1.0163195-.2758583-2.2504222 0-1.2341026.2758583-2.2359036.2758582-1.0090605.849353-1.7204844.5734948-.7114239 1.4446261-1.0961735.8711313-.3920091 2.054418-.3920091 1.1252113 0 1.9745644.3920091.856612.3847496 1.437367 1.103433.580754.7114239.871131 1.7204843.297636 1.001801.297636 2.2431631zm-7.7748465 0q0 .9945416.1887451 1.7930786.1887451.7912777.5734948 1.3502537.392009.551716.9872821.849353.6025325.290377 1.4301072.290377.8275748 0 1.4228478-.290377.6025325-.297637.9872825-.849353.392009-.558976.573494-1.3502537.181486-.798537.181486-1.7930786 0-1.001801-.181486-1.7930786-.181485-.7912776-.566235-1.3357347-.38475-.5517165-.9800226-.8420936-.5952731-.2976365-1.4228478-.2976365-.8275748 0-1.4301072.2976365-.6025325.2903771-.9945416.8420936-.3920091.5444571-.5807542 1.3357347-.1887451.7912776-.1887451 1.7930786z" fill="url(#a)" stroke="#000" stroke-opacity=".6" stroke-width="1.006883" transform="matrix(.98054575 0 0 1.005945 .021547 .07419)"/></g></svg>

<?xml version="1.0" encoding="UTF-8" standalone="no"?>
<svg
   xmlns:dc="http://purl.org/dc/elements/1.1/"
   xmlns:cc="http://creativecommons.org/ns#"
   xmlns:rdf="http://www.w3.org/1999/02/22-rdf-syntax-ns#"
   xmlns:svg="http://www.w3.org/2000/svg"
   xmlns="http://www.w3.org/2000/svg"
   xmlns:xlink="http://www.w3.org/1999/xlink"
   xmlns:sodipodi="http://sodipodi.sourceforge.net/DTD/sodipodi-0.dtd"
   xmlns:inkscape="http://www.inkscape.org/namespaces/inkscape"
   viewBox="0 0 16 16"
   version="1.1"
   id="svg17"
   sodipodi:docname="sc_underline.svg"
   inkscape:version="0.92.4 (unknown)"
   inkscape:export-filename="/home/rizmut/Dokumen/Rizmut/Github/libreoffice-style-elementary/images_elementary/cmd/nl/sc_underline.png"
   inkscape:export-xdpi="96"
   inkscape:export-ydpi="96"><metadata
   id="metadata23">
  <rdf:RDF>
    <cc:Work
       rdf:about="">
      <dc:format>image/svg+xml</dc:format>
      <dc:type
         rdf:resource="http://purl.org/dc/dcmitype/StillImage" />
      <dc:title />
    </cc:Work>
  </rdf:RDF>
</metadata>
<defs
   id="defs21">
  <radialGradient
     inkscape:collect="always"
     xlink:href="#a"
     id="radialGradient866"
     cx="7.0107198"
     cy="4.5281143"
     fx="7.0107198"
     fy="4.5281143"
     r="3.4318762"
     gradientTransform="matrix(-1.6197201,3.5075265e-8,-5.8938518e-8,-3.5647902,17.449339,17.729398)"
     gradientUnits="userSpaceOnUse" />
  <radialGradient
     inkscape:collect="always"
     xlink:href="#a"
     id="radialGradient828"
     gradientUnits="userSpaceOnUse"
     gradientTransform="matrix(-1.6197201,3.5075265e-8,-5.8938518e-8,-3.5647902,17.449339,17.729398)"
     cx="7.0107198"
     cy="4.5281143"
     fx="7.0107198"
     fy="4.5281143"
     r="3.4318762" />
</defs>
<sodipodi:namedview
   pagecolor="#ffffff"
   bordercolor="#666666"
   borderopacity="1"
   objecttolerance="10"
   gridtolerance="10"
   guidetolerance="10"
   inkscape:pageopacity="0"
   inkscape:pageshadow="2"
   inkscape:window-width="1366"
   inkscape:window-height="714"
   id="namedview19"
   showgrid="true"
   inkscape:zoom="8"
   inkscape:cx="-1.9686024"
   inkscape:cy="-4.474836"
   inkscape:window-x="0"
   inkscape:window-y="28"
   inkscape:window-maximized="1"
   inkscape:current-layer="g15"
   inkscape:snap-global="false">
  <inkscape:grid
     type="xygrid"
     id="grid830" />
</sodipodi:namedview>
<radialGradient
   id="a"
   cx="9.947"
   cy="2.235"
   gradientTransform="matrix(-2.99842 0 0 -3.03065 39.77 7.78)"
   gradientUnits="userSpaceOnUse"
   r="4.976">
  <stop
     offset="0"
     stop-color="#737373"
     id="stop2" />
  <stop
     offset=".262"
     stop-color="#636363"
     id="stop4" />
  <stop
     offset=".705"
     stop-color="#4b4b4b"
     id="stop6" />
  <stop
     offset="1"
     stop-color="#3f3f3f"
     id="stop8" />
</radialGradient>

/&amp;gt;<g
   id="g15"
   stroke-linejoin="round">
  <path
     d="m3.49 15.5h9.02z"
     id="path13"
     stroke-linecap="round"
     stroke-width=".995"
     stroke="#565656"
     fill="none" />
  <g
     aria-label="O"
     transform="matrix(0.98054575,0,0,1.005945,0.02154709,0.07419047)"
     style="font-style:normal;font-weight:normal;font-size:14.86730766px;line-height:1.25;font-family:sans-serif;letter-spacing:0px;word-spacing:0px;fill:url(#radialGradient866);fill-opacity:1;stroke:#000000;stroke-width:1.00688287;stroke-miterlimit:4;stroke-dasharray:none;stroke-opacity:0.6"
     id="text834">
    <path
       d="m 12.739224,7.8774127 q 0,1.2268433 -0.297636,2.2359033 -0.290377,1.009061 -0.871131,1.727744 -0.580755,0.718683 -1.444627,1.110693 -0.856612,0.392009 -1.9818233,0.392009 -1.1832867,0 -2.054418,-0.392009 Q 5.2257169,12.559743 4.6522221,11.84106 4.0859867,11.122377 3.8101285,10.113316 3.5342702,9.0969965 3.5342702,7.8628938 q 0,-1.2341026 0.2758583,-2.2359036 0.2758582,-1.0090605 0.849353,-1.7204844 0.5734948,-0.7114239 1.4446261,-1.0961735 0.8711313,-0.3920091 2.054418,-0.3920091 1.1252113,0 1.9745644,0.3920091 0.856612,0.3847496 1.437367,1.103433 0.580754,0.7114239 0.871131,1.7204843 0.297636,1.001801 0.297636,2.2431631 z m -7.7748465,0 q 0,0.9945416 0.1887451,1.7930786 0.1887451,0.7912777 0.5734948,1.3502537 0.392009,0.551716 0.9872821,0.849353 0.6025325,0.290377 1.4301072,0.290377 0.8275748,0 1.4228478,-0.290377 0.6025325,-0.297637 0.9872825,-0.849353 0.392009,-0.558976 0.573494,-1.3502537 0.181486,-0.798537 0.181486,-1.7930786 0,-1.001801 -0.181486,-1.7930786 Q 10.946146,5.2930565 10.561396,4.7485994 10.176646,4.1968829 9.5813734,3.9065058 8.9861003,3.6088693 8.1585256,3.6088693 q -0.8275748,0 -1.4301072,0.2976365 Q 6.1258859,4.1968829 5.7338768,4.7485994 5.3418677,5.2930565 5.1531226,6.0843341 4.9643775,6.8756117 4.9643775,7.8774127 Z"
       style="font-style:normal;font-variant:normal;font-weight:normal;font-stretch:normal;font-family:'Droid Sans';-inkscape-font-specification:'Droid Sans';fill:url(#radialGradient828);fill-opacity:1;stroke:#000000;stroke-width:1.00688287;stroke-miterlimit:4;stroke-dasharray:none;stroke-opacity:0.6"
       id="path825"
       inkscape:connector-curvature="0" />
  </g>
</g>
</svg>
